src/assets/filled/Battery3full.svg

<svg width="24" height="24" viewBox="0 0 24 24"  xmlns="http://www.w3.org/2000/svg">
<path d="M20.42 9.00047C20.28 8.99047 20.1 8.98047 19.9 8.98047C19.51 8.98047 19.2 9.29047 19.2 9.68047V14.3305C19.2 14.7205 19.51 15.0305 19.9 15.0305C20.1 15.0305 20.27 15.0205 20.44 15.0105C22 14.8305 22 13.7305 22 12.9305V11.0705C22 10.2705 22 9.17047 20.42 9.00047Z" />
<path d="M12.93 4.79004H7.35C3.25 4.79004 2 6.04004 2 10.14V13.86C2 17.96 3.25 19.21 7.35 19.21H12.93C17.03 19.21 18.28 17.96 18.28 13.86V10.14C18.28 6.04004 17.03 4.79004 12.93 4.79004ZM7.1 14.18C7.02 14.52 6.71 14.75 6.37 14.75C6.31 14.75 6.25 14.74 6.19 14.73C5.79 14.63 5.54 14.22 5.64 13.82C5.94 12.63 5.94 11.37 5.64 10.18C5.54 9.78004 5.78 9.37004 6.19 9.27004C6.6 9.17004 7 9.42004 7.1 9.82004C7.46 11.25 7.46 12.75 7.1 14.18ZM10.6 14.18C10.52 14.52 10.21 14.75 9.87 14.75C9.81 14.75 9.75 14.74 9.69 14.73C9.29 14.63 9.04 14.22 9.14 13.82C9.44 12.63 9.44 11.37 9.14 10.18C9.04 9.78004 9.28 9.37004 9.69 9.27004C10.09 9.17004 10.5 9.41004 10.6 9.82004C10.96 11.25 10.96 12.75 10.6 14.18ZM14.1 14.18C14.02 14.52 13.71 14.75 13.37 14.75C13.31 14.75 13.25 14.74 13.19 14.73C12.79 14.63 12.54 14.22 12.64 13.82C12.94 12.63 12.94 11.37 12.64 10.18C12.54 9.78004 12.78 9.37004 13.19 9.27004C13.59 9.17004 14 9.41004 14.1 9.82004C14.46 11.25 14.46 12.75 14.1 14.18Z" />
</svg>

<?xml version="1.0" encoding="UTF-8"?>
<svg width="24" height="24" viewBox="0 0 24 24" xmlns="http://www.w3.org/2000/svg">
 <path d="m20.42 9.0005c-0.14-0.01-0.32-0.02-0.52-0.02-0.39 0-0.7 0.31-0.7 0.7v4.65c0 0.39 0.31 0.7 0.7 0.7 0.2 0 0.37-0.01 0.54-0.02 1.56-0.18 1.56-1.28 1.56-2.08v-1.86c0-0.8 0-1.9-1.58-2.07z"/>
 <path d="m12.93 4.79h-5.58c-4.1 0-5.35 1.25-5.35 5.35v3.72c0 4.1 1.25 5.35 5.35 5.35h5.58c4.1 0 5.35-1.25 5.35-5.35v-3.72c0-4.1-1.25-5.35-5.35-5.35zm-5.83 9.39c-0.08 0.34-0.39 0.57-0.73 0.57-0.06 0-0.12-0.01-0.18-0.02-0.4-0.1-0.65-0.51-0.55-0.91 0.3-1.19 0.3-2.45 0-3.64-0.1-0.39996 0.14-0.80996 0.55-0.90996s0.81 0.15 0.91 0.55c0.36 1.43 0.36 2.93 0 4.36zm3.5 0c-0.08 0.34-0.39 0.57-0.73 0.57-0.06 0-0.12-0.01-0.18-0.02-0.4-0.1-0.65-0.51-0.55-0.91 0.3-1.19 0.3-2.45 0-3.64-0.1-0.39996 0.14-0.80996 0.55-0.90996 0.4-0.1 0.81 0.14 0.91 0.55 0.36 1.43 0.36 2.93 0 4.36zm3.5 0c-0.08 0.34-0.39 0.57-0.73 0.57-0.06 0-0.12-0.01-0.18-0.02-0.4-0.1-0.65-0.51-0.55-0.91 0.3-1.19 0.3-2.45 0-3.64-0.1-0.39996 0.14-0.80996 0.55-0.90996 0.4-0.1 0.81 0.14 0.91 0.55 0.36 1.43 0.36 2.93 0 4.36z"/>
</svg>
